X:3175
T:Vals efter Nylandspojkarna
R:Vals
S:Efter en inspelning med [[Personer/Täpp-Ida]]
O:Bingsjö, Dalarna
Z:Håkan Lidén, 2013-02-26
M:3/4
L:1/8
K:A
|: Ac | e4 ef | e4 d2 | c2 B2 A2 | B4 Bc | d2 c2 d2 | f2 ed eg | 
b2 ag ab | a2 A2 Ac | e4 ef | e4 d2 | c2 B2 A2 | B4 Bc | d2 c2 d2 | 
f2 ed eg | b2 ag ab | a4 y:: e2- | eg be gb | eg be gb | ea c'e ac' | 
ea c'e ac' | eg be gb | eg be gb | a3 bag | f2 dd d2 | c2 Ac e2- | 
ed BG BG | BA Ac ea | f2 dd d2 | c2 Ac e2- | ed BG BG | A4 y:|]
(:musicend:)

[[!Dublett]] av [[Musik/2504]]
(:music:)

